material/.icons/material/current-dc.svg

<svg xmlns="http://www.w3.org/2000/svg" viewBox="0 0 24 24"><path d="M2 9v2h20V9H2m0 4v2h5v-2H2m7 0v2h6v-2H9m8 0v2h5v-2h-5z"/></svg>

<?xml version="1.0" encoding="UTF-8"?><!DOCTYPE svg PUBLIC "-//W3C//DTD SVG 1.1//EN" "http://www.w3.org/Graphics/SVG/1.1/DTD/svg11.dtd"><svg xmlns="http://www.w3.org/2000/svg" xmlns:xlink="http://www.w3.org/1999/xlink" version="1.1" id="mdi-current-dc" width="24" height="24" viewBox="0 0 24 24"><path d="M2,9V11H22V9H2M2,13V15H7V13H2M9,13V15H15V13H9M17,13V15H22V13H17Z" /></svg>
